places/16/folder-download.svg

<?xml version="1.0" encoding="UTF-8" standalone="no"?>
<svg
   xmlns:dc="http://purl.org/dc/elements/1.1/"
   xmlns:cc="http://creativecommons.org/ns#"
   xmlns:rdf="http://www.w3.org/1999/02/22-rdf-syntax-ns#"
   xmlns:svg="http://www.w3.org/2000/svg"
   xmlns="http://www.w3.org/2000/svg"
   xmlns:xlink="http://www.w3.org/1999/xlink"
   version="1.1"
   width="16"
   height="16"
   id="svg3123">
  <defs
     id="defs3125">
    <linearGradient
       x1="71.204407"
       y1="8.7460327"
       x2="71.204407"
       y2="42.218239"
       id="linearGradient3071"
       xlink:href="#linearGradient4011"
       gradientUnits="userSpaceOnUse"
       gradientTransform="matrix(0.35135136,0,0,0.35135136,-17.203671,-0.90930013)" />
    <linearGradient
       id="linearGradient4011">
      <stop
         id="stop4013"
         style="stop-color:#ffffff;stop-opacity:1"
         offset="0" />
      <stop
         id="stop4015"
         style="stop-color:#ffffff;stop-opacity:0.23529412"
         offset="0.507761" />
      <stop
         id="stop4017"
         style="stop-color:#ffffff;stop-opacity:0.15686275"
         offset="0.83456558" />
      <stop
         id="stop4019"
         style="stop-color:#ffffff;stop-opacity:0.39215687"
         offset="1" />
    </linearGradient>
    <linearGradient
       id="linearGradient2867-449-88-871-390-598-476-591-434-148-57-177-3-8">
      <stop
         id="stop3750-8-9"
         style="stop-color:#90dbec;stop-opacity:1"
         offset="0" />
      <stop
         id="stop3752-3-2"
         style="stop-color:#55c1ec;stop-opacity:1"
         offset="0.26238" />
      <stop
         id="stop3754-7-2"
         style="stop-color:#3689e6;stop-opacity:1"
         offset="0.704952" />
      <stop
         id="stop3756-9-3"
         style="stop-color:#2b63a0;stop-opacity:1"
         offset="1" />
    </linearGradient>
    <radialGradient
       cx="5.7800279"
       cy="8.4497671"
       r="19.99999"
       fx="5.7800279"
       fy="8.4497671"
       id="radialGradient3119"
       xlink:href="#linearGradient2867-449-88-871-390-598-476-591-434-148-57-177-3-8"
       gradientUnits="userSpaceOnUse"
       gradientTransform="matrix(0,0.89892574,-0.95095622,-1.6561642e-8,16.035401,-6.0146846)" />
  </defs>
  <metadata
     id="metadata3128">
    <rdf:RDF>
      <cc:Work
         rdf:about="">
        <dc:format>image/svg+xml</dc:format>
        <dc:type
           rdf:resource="http://purl.org/dc/dcmitype/StillImage" />
        <dc:title />
      </cc:Work>
    </rdf:RDF>
  </metadata>
  <path
     style="color:#000000;display:inline;overflow:visible;visibility:visible;fill:url(#radialGradient3119);fill-opacity:1;fill-rule:nonzero;stroke:none;stroke-width:0.99999994;stroke-linecap:round;stroke-linejoin:round;stroke-miterlimit:4;stroke-dasharray:none;stroke-dashoffset:0;stroke-opacity:1;marker:none;enable-background:accumulate"
     id="path2555-7"
     d="m 8.000001,0.49999997 c -4.138241,0 -7.50000103,3.36175853 -7.50000103,7.49999993 C 0.49999997,12.138242 3.86176,15.500001 8.000001,15.5 12.13824,15.5 15.500004,12.138242 15.5,7.9999999 15.5,3.8617585 12.13824,0.49999997 8.000001,0.49999997 Z" />
  <path
     style="color:#000000;display:inline;overflow:visible;visibility:visible;opacity:0.5;fill:none;stroke:url(#linearGradient3071);stroke-width:0.99999994;stroke-linecap:round;stroke-linejoin:round;stroke-miterlimit:4;stroke-dasharray:none;stroke-dashoffset:0;stroke-opacity:1;marker:none;enable-background:accumulate"
     id="path8655-6"
     d="M 14.5,7.999769 C 14.5,11.589737 11.589636,14.5 8.0000824,14.5 4.4101993,14.5 1.5,11.589703 1.5,7.999769 1.5,4.4099697 4.4101993,1.5000003 8.0000824,1.5000003 11.589636,1.5000003 14.5,4.4099697 14.5,7.999769 l 0,0 z" />
  <path
     style="color:#000000;display:inline;overflow:visible;visibility:visible;fill:#000000;fill-opacity:1;fill-rule:nonzero;stroke:none;stroke-width:1;marker:none;enable-background:accumulate;clip-rule:nonzero;opacity:0.15;isolation:auto;mix-blend-mode:normal;color-interpolation:sRGB;color-interpolation-filters:linearRGB;solid-color:#000000;solid-opacity:1;stroke-linecap:butt;stroke-linejoin:miter;stroke-miterlimit:4;stroke-dasharray:none;stroke-dashoffset:0;stroke-opacity:1;filter-blend-mode:normal;filter-gaussianBlur-deviation:0;color-rendering:auto;image-rendering:auto;shape-rendering:auto;text-rendering:auto"
     id="rect3005-8"
     d="M 7,5 7,9 4,9 8,13 12,9 9,9 9,5 Z" />
  <path
     style="color:#000000;clip-rule:nonzero;display:inline;overflow:visible;visibility:visible;opacity:0.05;isolation:auto;mix-blend-mode:normal;color-interpolation:sRGB;color-interpolation-filters:linearRGB;solid-color:#000000;solid-opacity:1;fill:#000000;fill-opacity:1;fill-rule:nonzero;stroke:none;stroke-width:1;stroke-linecap:butt;stroke-linejoin:miter;stroke-miterlimit:4;stroke-dasharray:none;stroke-dashoffset:0;stroke-opacity:1;marker:none;color-rendering:auto;image-rendering:auto;shape-rendering:auto;text-rendering:auto;enable-background:accumulate;filter-blend-mode:normal;filter-gaussianBlur-deviation:0"
     id="path4248"
     d="M 7,4.0214844 A 0.97846189,0.97846189 0 0 0 6.0214844,5 l 0,3.0214844 -2.0214844,0 A 0.97846189,0.97846189 0 0 0 3.3085938,9.6914062 l 4,3.9999998 a 0.97846189,0.97846189 0 0 0 1.3828124,0 L 12.691406,9.6914062 A 0.97846189,0.97846189 0 0 0 12,8.0214844 l -2.0214844,0 0,-3.0214844 A 0.97846189,0.97846189 0 0 0 9,4.0214844 l -2,0 z" />
  <path
     style="color:#000000;display:inline;overflow:visible;visibility:visible;fill:#ffffff;fill-opacity:1;fill-rule:nonzero;stroke:none;stroke-width:1;marker:none;enable-background:accumulate"
     id="rect3005"
     d="M 7,4 7,8 4,8 8,12 12,8 9,8 9,4 Z" />
  <path
     d="m 8.0000017,0.5 c -4.138242,0 -7.50000195,3.361758 -7.50000195,7.5 0,4.138241 3.36175995,7.500001 7.50000195,7.5 C 12.13824,15.5 15.500004,12.138241 15.5,8 15.5,3.861758 12.13824,0.5 8.0000017,0.5 Z"
     id="path2555-6"
     style="color:#000000;display:inline;overflow:visible;visibility:visible;opacity:0.5;fill:#000000;fill-opacity:0;fill-rule:nonzero;stroke:#00537d;stroke-width:1;stroke-linecap:round;stroke-linejoin:round;stroke-miterlimit:4;stroke-dasharray:none;stroke-dashoffset:0;stroke-opacity:1;marker:none;enable-background:accumulate" />
</svg>

<svg xmlns="http://www.w3.org/2000/svg" xmlns:xlink="http://www.w3.org/1999/xlink" viewBox="0 0 16 16"><defs><linearGradient x1="71.204" y1="8.746" x2="71.204" y2="42.218" id="d" xlink:href="#a" gradientUnits="userSpaceOnUse" gradientTransform="translate(-17.204 -.91) scale(.35135)"/><linearGradient id="a"><stop offset="0" stop-color="#fff"/><stop offset=".508" stop-color="#fff" stop-opacity=".235"/><stop offset=".835" stop-color="#fff" stop-opacity=".157"/><stop offset="1" stop-color="#fff" stop-opacity=".392"/></linearGradient><linearGradient id="b"><stop offset="0" stop-color="#90dbec"/><stop offset=".262" stop-color="#55c1ec"/><stop offset=".705" stop-color="#3689e6"/><stop offset="1" stop-color="#2b63a0"/></linearGradient><radialGradient cx="5.78" cy="8.45" r="20" fx="5.78" fy="8.45" id="c" xlink:href="#b" gradientUnits="userSpaceOnUse" gradientTransform="matrix(0 .89893 -.95096 0 16.035 -6.015)"/></defs><path d="M8 .5A7.505 7.505 0 0 0 .5 8c0 4.138 3.362 7.5 7.5 7.5s7.5-3.362 7.5-7.5S12.138.5 8 .5z" color="#000" overflow="visible" fill="url(#c)"/><path d="M14.5 8a6.5 6.5 0 1 1-13 0 6.5 6.5 0 0 1 13 0z" color="#000" overflow="visible" opacity=".5" fill="none" stroke="url(#d)" stroke-linecap="round" stroke-linejoin="round"/><path style="isolation:auto;mix-blend-mode:normal;filter-blend-mode:normal;filter-gaussianBlur-deviation:0" d="M7 5v4H4l4 4 4-4H9V5z" color="#000" overflow="visible" opacity=".15"/><path style="isolation:auto;mix-blend-mode:normal;filter-blend-mode:normal;filter-gaussianBlur-deviation:0" d="M7 4.02a.978.978 0 0 0-.98.98v3.02H4a.978.978 0 0 0-.69 1.67l4 4a.978.978 0 0 0 1.38 0l4-4A.978.978 0 0 0 12 8.02H9.98V5A.978.978 0 0 0 9 4.02H7z" color="#000" overflow="visible" opacity=".05"/><path d="M7 4v4H4l4 4 4-4H9V4z" color="#000" overflow="visible" fill="#fff"/><path d="M8 .5A7.505 7.505 0 0 0 .5 8c0 4.138 3.362 7.5 7.5 7.5s7.5-3.362 7.5-7.5S12.138.5 8 .5z" color="#000" overflow="visible" opacity=".5" stroke="#00537d" stroke-linecap="round" stroke-linejoin="round" fill="none"/></svg>
